assets/images/payments/Discover.svg

<svg fill="none" height="32" viewBox="0 0 40 32" width="40" xmlns="http://www.w3.org/2000/svg" xmlns:xlink="http://www.w3.org/1999/xlink"><filter id="a" color-interpolation-filters="sRGB" filterUnits="userSpaceOnUse" height="34" width="40.9" x="0" y="0"><feFlood flood-opacity="0" result="BackgroundImageFix"/><feColorMatrix in="SourceAlpha" result="hardAlpha" type="matrix" values="0 0 0 0 0 0 0 0 0 0 0 0 0 0 0 0 0 0 127 0"/><feOffset dy="4"/><feGaussianBlur stdDeviation="2"/><feComposite in2="hardAlpha" operator="out"/><feColorMatrix type="matrix" values="0 0 0 0 0 0 0 0 0 0 0 0 0 0 0 0 0 0 0.08 0"/><feBlend in2="BackgroundImageFix" mode="normal" result="effect1_dropShadow_5_102"/><feBlend in="SourceGraphic" in2="effect1_dropShadow_5_102" mode="normal" result="shape"/></filter><mask id="b" height="23" maskUnits="userSpaceOnUse" width="32" x="4" y="2"><path clip-rule="evenodd" d="m7.76113 1.99995h24.43967c1.5572 0 2.8196 1.34308 2.8196 2.99985v16.0001c0 1.6568-1.2624 3.0002-2.8196 3.0002h-24.43967c-1.55798 0-2.82039-1.3434-2.82039-3.0002v-16.0001c0-1.65677 1.26241-2.99985 2.82039-2.99985z" fill="#fff" fill-rule="evenodd"/></mask><g clip-rule="evenodd" fill-rule="evenodd" filter="url(#a)"><path d="m7.76113 1.99995h24.43967c1.5572 0 2.8196 1.34308 2.8196 2.99985v16.0001c0 1.6568-1.2624 3.0002-2.8196 3.0002h-24.43967c-1.55798 0-2.82039-1.3434-2.82039-3.0002v-16.0001c0-1.65677 1.26241-2.99985 2.82039-2.99985z" fill="#f5f2f0"/><g mask="url(#b)"><path d="m35.0211 15.0001s-8.1338 6.219-23.0314 9.0028h23.0314z" fill="#f57e30"/><path d="m23.9868 8.14829 1.0849 3.15831 1.1-3.15831h.8606l-1.7585 4.82211h-.4271l-1.7276-4.82211zm-9.9406-.07764c.3904 0 .7522.1348 1.0649.39968l.1309.12147-.4153.62821c-.2068-.26783-.4025-.38077-.6403-.38077-.3423 0-.5911.22509-.5911.52116 0 .2541.1394.3886.6165.59213.9026.38157 1.1705.71957 1.1705 1.46657 0 .9102-.5786 1.5439-1.4043 1.5439-.5535 0-.9686-.231-1.3159-.747l-.0931-.1479.5127-.5705c.1831.4082.4882.627.867.627.3542 0 .6165-.2824.6165-.6631 0-.1977-.0792-.3671-.2385-.4867-.0793-.0568-.2377-.1411-.5484-.2678-.7457-.3098-1.0017-.6415-1.0017-1.28935 0-.76938.5492-1.347 1.2696-1.347zm3.7539-.02863c.2846 0 .5312.05882.8069.19644l.1694.09218v1.07916c-.3297-.37292-.6165-.52899-.9954-.52899-.7449 0-1.3297.71213-1.3297 1.61479 0 .9521.5674 1.6215 1.367 1.6215.3198 0 .5776-.1168.8536-.4005l.1045-.1143v1.0795c-.3606.1965-.6538.2741-.9954.2741-1.2085 0-2.1483-1.0717-2.1483-2.4536 0-1.367.9644-2.46028 2.1674-2.46028zm-8.87484.10627c1.28774 0 2.18564.96662 2.18564 2.35401 0 .6921-.275 1.3611-.7394 1.805-.3473.3329-.73713.5028-1.25249.5365l-.19931.0062h-1.15939v-4.70171zm3.34504 0v4.70171h-.7941v-4.70171zm17.3724 0v.79644h-1.4582v1.04387h1.4051v.7964h-1.4051v1.269h1.4582v.796h-2.2514v-4.70171zm.5262 0h1.1776c.9153 0 1.4399.50782 1.4399 1.38818 0 .66853-.2836 1.12343-.8031 1.29763l-.1241.0352 1.2814 1.9807h-.9763l-1.0992-1.8889h-.103v1.8889h-.7932v-4.70171h1.1776zm-21.40216.79644h-.21316v3.10927h.21316c.51274 0 .83687-.1133 1.08649-.3737.27417-.2824.43977-.7333.43977-1.1847 0-.4505-.1656-.88816-.43977-1.1705-.26231-.2741-.57375-.38037-1.08649-.38037zm22.43946-.05569h-.2441v1.42386h.2314c.5072 0 .7758-.2545.7758-.72703 0-.45762-.2686-.69683-.7631-.69683z" fill="#333"/><path d="m23.3576 10.5023c0 1.3807-.9683 2.4995-2.1642 2.4995-1.1958 0-2.1642-1.1188-2.1642-2.4995 0-1.38072.9684-2.50028 2.1642-2.50028 1.1959 0 2.1642 1.11956 2.1642 2.50028z" fill="#f57e30"/></g></g></svg>

<svg width="40" height="32" viewBox="0 0 40 32" fill="none" xmlns="http://www.w3.org/2000/svg">
<g filter="url(#filter0_d_5_102)">
<path fill-rule="evenodd" clip-rule="evenodd" d="M7.76113 1.99995H32.2008C33.758 1.99995 35.0204 3.34303 35.0204 4.9998V20.9999C35.0204 22.6567 33.758 24.0001 32.2008 24.0001H7.76113C6.20315 24.0001 4.94074 22.6567 4.94074 20.9999V4.9998C4.94074 3.34303 6.20315 1.99995 7.76113 1.99995Z" fill="#F5F2F0"/>
<mask id="mask0_5_102" style="mask-type:alpha" maskUnits="userSpaceOnUse" x="4" y="2" width="32" height="23">
<path fill-rule="evenodd" clip-rule="evenodd" d="M7.76113 1.99995H32.2008C33.758 1.99995 35.0204 3.34303 35.0204 4.9998V20.9999C35.0204 22.6567 33.758 24.0001 32.2008 24.0001H7.76113C6.20315 24.0001 4.94074 22.6567 4.94074 20.9999V4.9998C4.94074 3.34303 6.20315 1.99995 7.76113 1.99995Z" fill="white"/>
</mask>
<g mask="url(#mask0_5_102)">
<path fill-rule="evenodd" clip-rule="evenodd" d="M35.0211 15.0001C35.0211 15.0001 26.8873 21.2191 11.9897 24.0029H35.0211V15.0001Z" fill="#F57E30"/>
<path fill-rule="evenodd" clip-rule="evenodd" d="M23.9868 8.14829L25.0717 11.3066L26.1717 8.14829H27.0323L25.2738 12.9704H24.8467L23.1191 8.14829H23.9868ZM14.0462 8.07065C14.4366 8.07065 14.7984 8.20545 15.1111 8.47033L15.242 8.5918L14.8267 9.22001C14.6199 8.95218 14.4242 8.83924 14.1864 8.83924C13.8441 8.83924 13.5953 9.06433 13.5953 9.3604C13.5953 9.6145 13.7347 9.749 14.2118 9.95253C15.1144 10.3341 15.3823 10.6721 15.3823 11.4191C15.3823 12.3293 14.8037 12.963 13.978 12.963C13.4245 12.963 13.0094 12.732 12.6621 12.216L12.569 12.0681L13.0817 11.4976C13.2648 11.9058 13.5699 12.1246 13.9487 12.1246C14.3029 12.1246 14.5652 11.8422 14.5652 11.4615C14.5652 11.2638 14.486 11.0944 14.3267 10.9748C14.2474 10.918 14.089 10.8337 13.7783 10.707C13.0326 10.3972 12.7766 10.0655 12.7766 9.41765C12.7766 8.64827 13.3258 8.07065 14.0462 8.07065ZM17.8001 8.04202C18.0847 8.04202 18.3313 8.10084 18.607 8.23846L18.7764 8.33064V9.4098C18.4467 9.03688 18.1599 8.88081 17.781 8.88081C17.0361 8.88081 16.4513 9.59294 16.4513 10.4956C16.4513 11.4477 17.0187 12.1171 17.8183 12.1171C18.1381 12.1171 18.3959 12.0003 18.6719 11.7166L18.7764 11.6023V12.6818C18.4158 12.8783 18.1226 12.9559 17.781 12.9559C16.5725 12.9559 15.6327 11.8842 15.6327 10.5023C15.6327 9.1353 16.5971 8.04202 17.8001 8.04202ZM8.92526 8.14829C10.213 8.14829 11.1109 9.11491 11.1109 10.5023C11.1109 11.1944 10.8359 11.8634 10.3715 12.3073C10.0242 12.6402 9.63437 12.8101 9.11901 12.8438L8.9197 12.85H7.76031V8.14829H8.92526ZM12.2703 8.14829V12.85H11.4762V8.14829H12.2703ZM29.6427 8.14829V8.94473H28.1845V9.9886H29.5896V10.785H28.1845V12.054H29.6427V12.85H27.3913V8.14829H29.6427ZM30.1689 8.14829H31.3465C32.2618 8.14829 32.7864 8.65611 32.7864 9.53647C32.7864 10.205 32.5028 10.6599 31.9833 10.8341L31.8592 10.8693L33.1406 12.85H32.1643L31.0651 10.9611H30.9621V12.85H30.1689V8.14829H31.3465H30.1689ZM8.76674 8.94473H8.55358V12.054H8.76674C9.27948 12.054 9.60361 11.9407 9.85323 11.6803C10.1274 11.3979 10.293 10.947 10.293 10.4956C10.293 10.0451 10.1274 9.60744 9.85323 9.3251C9.59092 9.051 9.27948 8.94473 8.76674 8.94473ZM31.2062 8.88904H30.9621V10.3129H31.1935C31.7007 10.3129 31.9693 10.0584 31.9693 9.58587C31.9693 9.12825 31.7007 8.88904 31.2062 8.88904Z" fill="#333333"/>
<path fill-rule="evenodd" clip-rule="evenodd" d="M23.3576 10.5023C23.3576 11.883 22.3893 13.0018 21.1934 13.0018C19.9976 13.0018 19.0292 11.883 19.0292 10.5023C19.0292 9.12158 19.9976 8.00202 21.1934 8.00202C22.3893 8.00202 23.3576 9.12158 23.3576 10.5023Z" fill="#F57E30"/>
</g>
</g>
<defs>
<filter id="filter0_d_5_102" x="0" y="0" width="40.9" height="34" filterUnits="userSpaceOnUse" color-interpolation-filters="sRGB">
<feFlood flood-opacity="0" result="BackgroundImageFix"/>
<feColorMatrix in="SourceAlpha" type="matrix" values="0 0 0 0 0 0 0 0 0 0 0 0 0 0 0 0 0 0 127 0" result="hardAlpha"/>
<feOffset dy="4"/>
<feGaussianBlur stdDeviation="2"/>
<feComposite in2="hardAlpha" operator="out"/>
<feColorMatrix type="matrix" values="0 0 0 0 0 0 0 0 0 0 0 0 0 0 0 0 0 0 0.08 0"/>
<feBlend mode="normal" in2="BackgroundImageFix" result="effect1_dropShadow_5_102"/>
<feBlend mode="normal" in="SourceGraphic" in2="effect1_dropShadow_5_102" result="shape"/>
</filter>
</defs>
</svg>
